X: 4
T: Handsome Young Maids
I: Handsome Young MaidsJ-52Ajig
C: Charlie Lennon
M: 6/8
R: jig
K: A
"A"aed cBA| cde aga| "E"bee dee| Bee bag|
"A"aed cBA| cde aga| "E"bee dee|1 BAG "A"A2e:|2 "E"BAG "A"A2|]
\
B| "A"c2A ABc| "D"dcd "E"fed| "A"cAc aec| "E"B2f fed|
   "A"c2A ABc| "D"dcd "E"fed| "A"ece "D"fed| "E"cdB "A"A2B|
   "A"c2A ABc| "D"dcd "E"fed| "A"cAc aec| "E"B2f fed|
   "A"c2A ABc| "D"dcd "E"fed| "A"ece "D"fef| "E"gfg bag|]
%%text Roaring Jelly  J-52
%%text 10/31/00
